cssgg/work-alt.svg

<svg
  width="24"
  height="24"
  viewBox="0 0 24 24"
  fill="none"
  xmlns="http://www.w3.org/2000/svg"
>
  <path
    fill-rule="evenodd"
    clip-rule="evenodd"
    d="M17 7C17 5.34315 15.6569 4 14 4H10C8.34315 4 7 5.34315 7 7H6C4.34315 7 3 8.34315 3 10V18C3 19.6569 4.34315 21 6 21H18C19.6569 21 21 19.6569 21 18V10C21 8.34315 19.6569 7 18 7H17ZM14 6H10C9.44772 6 9 6.44772 9 7H15C15 6.44772 14.5523 6 14 6ZM6 9H18C18.5523 9 19 9.44772 19 10V18C19 18.5523 18.5523 19 18 19H6C5.44772 19 5 18.5523 5 18V10C5 9.44772 5.44772 9 6 9Z"
    fill="currentColor"
  />
</svg>

<svg viewBox="0 0 24 24" xmlns="http://www.w3.org/2000/svg"><path fill-rule="evenodd" d="M17 7c0-1.66-1.35-3-3-3h-4C8.34 4 7 5.34 7 7H6c-1.66 0-3 1.34-3 3v8c0 1.65 1.34 3 3 3h12c1.65 0 3-1.35 3-3v-8c0-1.66-1.35-3-3-3h-1Zm-3-1h-4c-.56 0-1 .44-1 1h6c0-.56-.45-1-1-1ZM6 9h12c.55 0 1 .44 1 1v8c0 .55-.45 1-1 1H6c-.56 0-1-.45-1-1v-8c0-.56.44-1 1-1Z"/></svg>
